!!!!SEGMENT: pl-wumfc--n18053--015_noskowski-zygmunt--livia-quintilla-akt-drugi-scena-iii.krn
!!!cenid: 18xx:4231
!!!COM: Noskowski, Zygmunt
!!!COM-rismID: pe106604
!!!CDT: 1846/05/02-1909/07/23
!!!CNT: Polish
!!!GTL: Livia Quintilla
!!!OTL: Akt drugi - Scena III
!!!OMV: 015
!!!PDT: 1898
!!!AGN:
!!!SMS-siglum: PL-Wumfc
!!!SMS-shelfmark: N18053
!!!SMS-shelfwork: 001-015 G
!!!SMS-variant:
!!!SMS-altvar:
!!!NIFC-rismSourceID: 1001161204
!!!NIFC-rismChildID: 1001161204
!!!NIFC-islandoraID: pl-wumfc:1491
!!!URL-pdf-islandora: https://repozytorium.nifc.pl/islandora/object/pl-wumfc:1491/datastream/PDF/view
!!!URL-scan: https://polish.musicsources.pl/pl/lokalizacje/galeria/druki-muzyczne/11843/53 @EN{Scan on Polish Music Sources Website} @PL{Skany w portalu Dziedzictwo Muzyki Polskiej w otwartym dostępie}
!!!ONB-nifc: Skany 0053-0054
!!!AIN: 2 piano 1 vox
!!!key: e
**kern	**kern	**dynam	**kern	**text	**dynam
*part3	*part2	*part2	*part1	*part1	*part1
*staff3	*staff2	*	*staff1	*staff1	*
*I"[PIANO.]	*I"[PIANO.]	*	*I"LIVIA. (sama)	*	*
*I'[pf]	*I'[pf]	*	*I'Liv.	*	*
*ICklav	*ICklav	*	*ICvox	*	*
*Ipiano	*Ipiano	*	*Ivox	*	*
*clefF4	*clefG2	*	*clefG2	*	*
*e:	*e:	*	*e:	*	*
*k[f#]	*k[f#]	*	*k[f#]	*	*
*M9/8	*M9/8	*	*M9/8	*	*
=1	=1	=1	=1	=1	=1
*	*^	*	*	*	*
!	!	!	!	!LO:TX:a:B:t=Moderato ma appassionato ed agitato.	!	!LO:DY:a
8EE\L 8BB 8G	8ee\ 8gg 8bb 8eee	4.ryy	f	2.ee\	Cze-	f
8E\ 8B 8e	8g/L	.	p	.	.	.
8E\J 8B 8e	8g/J	.	.	.	.	.
8E\L 8B 8e	(4.ee/	8g\L	.	.	.	.
8E\ 8B 8e	.	8g\	.	.	.	.
8E\J 8B 8e	.	8g\J	.	.	.	.
8E\L 8B 8e	4a#X/	8g\L	.	4a#X/	-muś	.
8E\ 8B 8e	.	8g\	.	.	.	.
8E\J 8B 8e	8b/)	8g\J	.	8b\	mnie	.
=2	=2	=2	=2	=2	=2	=2
8r	(4.gg/	8rf	.	4.gg\	cze-	.
8E\L 8c 8e	.	8an\L 8cc	.	.	.	.
8E\J 8c 8e	.	8a\J 8cc	.	.	.	.
8E\L 8c 8e	4ff#/)	8a\L 8cc	.	4ff#\	-mu	.
8E\ 8c 8e	.	8a\ 8cc	.	.	.	.
8E\J 8c 8e	8a/	8a\J	.	8an/	przy-	.
8E\L 8c 8e	(4gg/	8a\L 8cc	<	4gg\	-ja-	.
8E\ 8c 8e	.	8a\ 8cc	.	.	.	.
8E\J 8c 8e	8ff#/)	8a\J 8cc	[	8ff#\	-zną	.
=3	=3	=3	=3	=3	=3	=3
8FF#\L 8F#	(4ee/	8rf	.	4ee\	dło-	.
8F#\ 8A	.	8e\L 8a 8cc	.	.	.	.
8F#\J 8A	8dd#X/)	8d#X\J 8a 8b	.	8dd#X\	-nią	.
8AA\L 8A	(4ff#/	8rf	.	(4ff#\	Śmier-	.
8B\ 8d#X	.	8f#\L 8b 8dd#	.	.	.	.
8B\J 8d#	8dd#/)	8f#\J 8b	.	8dd#\)	.	.
4.FF#/ 4.F#	(4cc/	8rd	.	4cc\	-ci	.
.	.	8c\L 8e 8a	.	.	.	.
.	8b/)	8B\J 8e 8a	.	8b\	wy-	.
!!LO:LB:g=original	!	!	!	!	!	!
=4	=4	=4	=4	=4	=4	=4
8BBB\L 8BB	4.cc/	8rc	.	4.cc\	-dar-	.
8BB\ 8F# 8A	.	8d#X\L	.	.	.	.
8BB\J 8F# 8A	.	8d#\J	.	.	.	.
8BB\L 8F# 8A	[>4.d#/	8ryy	.	4d#X/	-ła?	.
8BB\ 8F# 8A	.	8ryy	.	.	.	.
8BB\J 8F# 8A	.	8ryy	.	8r	.	.
4.FF#/ 4.F#	4d#/]	8r	.	4r	.	.
.	.	8A\L 8B	.	.	.	.
.	8d#/	8A\J 8B	.	8d#/	Już	.
=5	=5	=5	=5	=5	=5	=5
2.EE/ 2.E	4e/	8G\L 8c	.	4e/	Per-	.
.	.	8G\ 8c	.	.	.	.
.	8g/	8c\J 8e	.	8g/	-se-	.
.	4cc/	8c\L 8g	.	(4cc\	-fo-	.
.	.	8c\ 8g	.	.	.	.
.	8a#X/	8c\J 8g	.	8a#X/)	.	.
4.EE/ 4.E	8B/L 8e 8g 8b	4ryy	.	4b\	-na	.
.	8B/ 8e 8g 8b	.	.	.	.	.
.	8B/J 8e 8g 8b	8ryy	.	8b\	nad	.
*	*v	*v	*	*	*	*
=6	=6	=6	=6	=6	=6
4.GG/ 4.G	8r	.	4ee\	mo-	.
.	8B/L 8e 8b	.	.	.	.
.	8B/J 8e 8g	.	8g/	-ją	.
4.CC#X/ 4.C#X	8B/L 8e 8g	.	(4.ee\	skro-	.
.	8B/ 8e 8f#	<	.	.	.
.	8B/J 8e 8g	.	.	.	.
4DDn/ 4Dn	8B/L 8f# 8b	.	4ddn\)	.	.
.	8B/ 8f#	.	.	.	.
8EE/ 8E	8B/J 8c#X 8g	[	8cc#X\	-nią	.
!!LO:LB:g=original	!	!	!	!	!
=7	=7	=7	=7	=7	=7
[2.DD/ [2.D	8r	mf	[4.ff#\	Cień	.
.	8B/L 8f# 8b	.	.	.	.
.	8B/J 8f# 8a#X	.	.	.	.
.	8B/L 8f# 8an	.	4ff#\]	.	.
.	8B/ 8d 8g	.	.	.	.
.	8B/J 8d 8f#	.	8r	.	.
4.DD/] 4.D]	8B/L 8e#X	.	4dd\	roz-	.
.	8B/ 8f#	.	.	.	.
.	8B/J 8f# 8a#X	.	8a#X/	-pos-	.
=8	=8	=8	=8	=8	=8
4.GGG/ 4.GG	8r	>	(4b\	-tar-	.
.	8B/L 8e#X 8b	.	.	.	.
.	8B/J 8c#X 8e#	]	8e#X/)	.	.
4FFF#/ 4FF#	8A#X/L 8c# 8f#	.	[4.f#/	-ła.	.
.	8A#/ 8c# 8g	.	.	.	.
8EEn/ 8En	8A#/J 8c# 8f#	.	.	.	.
4DD/ 4D	8r	.	4f#/]	.	.
.	8A#/L 8f#	<	.	.	.
8CC#X/ 8C#X	8A#/J 8en 8f#	[[	8r	.	.
=9	=9	=9	=9	=9	=9
8BBB\L 8BB	2.ff#^^\ 2.fff#	f	8%9r	.	.
8F#\ 8B 8d	.	.	.	.	.
8F#\J 8B 8d	.	.	.	.	.
8F#\L 8B 8d	.	.	.	.	.
8F#\ 8B 8d	.	.	.	.	.
8F#\J 8B 8d	.	.	.	.	.
8F#\L 8B 8d	(4a#X\ 4aa#X	.	.	.	.
8F#\ 8B 8d	.	.	.	.	.
8F#\J 8B 8d	8b\) 8bb	.	.	.	.
!!LO:LB:g=original	!	!	!	!	!
=10	=10	=10	=10	=10	=10
8r	4ee#X\ 4eee#X	.	4r	.	.
8G\L 8B 8d	.	.	.	.	.
8G\J 8B 8d	8dd\ 8ddd	.	8r	.	.
8F#\L 8B 8d	8ff#\L 8fff#	.	4r	.	.
8F#\ 8B 8d	8dd\ 8ff# 8ddd	.	.	.	.
8F#\J 8B 8d	8dd\J 8ff# 8ccc#X	.	8r	.	.
4BB\ 4B	4dd\ 4ff# 4bb	.	4r	.	.
8r	8r	.	8b\	Już	.
=11	=11	=11	=11	=11	=11
4.CC#X/ 4.C#X	8r	p	4een\	by-	.
.	8B/L 8en 8g	.	.	.	.
.	8B/J 8e 8g	.	8g/	-łam	.
4.DD/ 4.D	8B/L 8f#	.	(4.dd\	ci-	.
.	8B/ 8f# 8a#X	.	.	.	.
.	8B/J 8f# 8b	.	.	.	.
4.FF#/ 4.F#	8A#X/L 8e 8f#	.	4.a#X/)	.	.
.	(8qan/	.	.	.	.
.	8A#/) 8e 8g	.	.	.	.
.	8A#/J 8e 8f#	.	.	.	.
=12	=12	=12	=12	=12	=12
*	*^	*	*	*	*
8BB\L	2.ff#/	8rf	mf	[2.b\	-cha,	.
8F#\ 8B 8d	.	8f#\L 8b	.	.	.	.
8F#\J 8B 8d	.	8f#\J 8b	.	.	.	.
8F#\L 8B 8d	.	8f#\L 8b	.	.	.	.
8F#\ 8B 8d	.	8f#\ 8b	.	.	.	.
8F#\J 8B 8d	.	8f#\J 8b	.	.	.	.
8r	(4cc#X/	8rd	.	8b\]	.	.
8F#\L 8B 8d	.	8f#\L 8b	.	8r	.	.
8F#\J 8B 8d	8dd/)	8f#\J 8b	.	8r	.	.
!!LO:LB:g=original	!	!	!	!	!	!
=13	=13	=13	=13	=13	=13	=13
4.DD/ 4.D	(4bb/	8rf	.	4r	.	.
.	.	8b\L 8ff#	>	.	.	.
.	8aa/)	8b\J 8ff#	.	8r	.	.
4.BBB/ 4.BB	4.gg#X/	8g#X\L 8dd 8ff#	.	4.dd\	bliz-	.
.	.	8g#\ 8dd 8ff#	.	.	.	.
.	.	8g#\J 8dd 8ff#	]	.	.	.
4.CC#X/ 4.C#X	4.ee#X/	8g#\L 8b	.	4cc#X\	-ka	.
.	.	8g#\ 8b	.	.	.	.
.	.	8g#\J 8b	.	8b\	ni-	.
*	*v	*v	*	*	*	*
=14	=14	=14	=14	=14	=14
8FF#\L	8f#/L 8a#X 8ff#	.	4.a#X/	-coś-	.
8F#\ 8A#X	8c#X/	.	.	.	.
8F#\J 8A#	8c#/J 8d#X	.	.	.	.
!	!LO:TX:b:i:t=poco rall.	!	!LO:TX:a:i:t=poco rall.	!	!
8F#\L 8A#	8c#/L 8f#	.	[4.f#/	-ci	.
8F#\ 8A#	8c#/ 8e	.	.	.	.
8F#\J 8A#	8c#/J 8d#	.	.	.	.
4.AA#X/	8c#/L	>	8f#/]	.	.
.	8c#/ 8f#	.	8r	.	.
!	!	!	!	!	!LO:DY:a
.	8c#/J 8f# 8a#	]	8cc#X\	I	p
=15	=15	=15	=15	=15	=15
2.GG#X/	8d#X/L 8f# 8b	pp	4ff#\	tak	.
.	8d#/ 8f# 8b	.	.	.	.
!	!LO:TX:b:i:t=riten.	!	!LO:TX:a:i:t=riten.	!	!
.	8d#/J 8f# 8b	.	8b\	szczę-	.
.	8f#/L 8b 8dd#X	.	(4.dd#X\	-śli-	.
.	8f#/ 8b 8dd#	.	.	.	.
.	8f#/J 8b 8dd#	.	.	.	.
4.C#X/	8e#X/L 8b 8cc#X	.	4.ee#X\)	.	.
.	8e#/ 8b 8cc#	.	.	.	.
.	8e#/J 8b 8cc#	.	.	.	.
!!LO:PB:g=original	!	!	!	!	!
=16	=16	=16	=16	=16	=16
*	*^	*	*	*	*
*	*	*^	*	*	*	*
!	!	!	!	!	!LO:TX:a:i:t=a tempo	!	!
2.FF#/ 2.F#	2.ff#/	8r	2.f#\	mf	[4.ff#\	-wa	.
!	!LO:TX:b:i:t=a tempo	!	!	!	!	!	!
.	.	8a#X\L 8cc#X	.	.	.	.	.
.	.	8a#\J 8cc#	.	.	.	.	.
.	.	8a#\L 8cc#	.	.	4ff#\]	.	.
.	.	8a#\ 8cc#	.	.	.	.	.
.	.	8a#\J 8cc#	.	.	8r	.	.
(4c#X\	(4cc#/	8rd	4ryy	.	4r	.	.
.	.	8f#\L 8a#	.	.	.	.	.
8dn\)	8ddn/)	8f#\J 8a#	8ryy	.	8r	.	.
*	*	*v	*v	*	*	*	*
=17	=17	=17	=17	=17	=17	=17
*^	*	*	*	*	*	*
(4e#X/	[2.F#\	(4ee#X/	8rd	.	4r	.	.
.	.	.	8gn\L 8b	.	.	.	.
8d/)	.	8dd/)	8g\J 8b	.	8r	.	.
[4.c#X/	.	[4.cc#X/	8rd	.	4r	.	.
.	.	.	8f#\L 8a#X	.	.	.	.
.	.	.	8f#\J 8a#	.	8r	.	.
4c#/]	4.F#\]	4cc#/]	8f#\L 8a#	.	4r	.	.
.	.	.	8f#\ 8a#	.	.	.	.
!	!	!	!	!	!	!	!LO:DY:a
8rB	.	8ree	8f#\J 8a#	.	8cc#X\	Po-	f
*v	*v	*	*	*	*	*	*
*	*v	*v	*	*	*	*
=18	=18	=18	=18	=18	=18
2.FF#/	8r	.	4ee#X\	-wra-	.
.	8B/L 8d 8e#X	.	.	.	.
.	8d/J 8e# 8b	.	8b\	-cam	.
.	8d/L 8e# 8b	.	4ee#\	w ot-	.
.	8B/ 8d 8e#	.	.	.	.
.	8B/J 8d 8e# 8g#X	.	8ddn\	-chłań	.
4.F#\	8B/L 8d 8e# 8g#	.	8g#X/	nę-	.
.	8B/ 8d 8f# 8a#X	.	8a#X/	-dzy	.
.	8B/J 8d 8e# 8g#	.	8b\	i	.
=19	=19	=19	=19	=19	=19
*	*^	*	*	*	*
*	*	*^	*	*	*	*
[2.FF#/ [2.F#	2.aa#X/	8r	2.a#X\	mf	(4dd\	złoś-	.
.	.	8cc#X\L 8ff#	.	.	.	.	.
.	.	8cc#\J 8ff#	.	.	8cc#X\)	.	.
.	.	8cc#\L 8ff#	.	.	[4.a#X/	-ci.	.
.	.	8cc#\ 8ff#	.	.	.	.	.
.	.	8cc#\J 8ff#	.	.	.	.	.
4.FF#/] 4.F#]	4ee/	8r	4e#X\	.	4a#/]	.	.
.	.	8a#X\L 8cc#	.	.	.	.	.
.	8ff#/	8a#\J 8cc#	8f#\	.	8r	.	.
*	*v	*v	*v	*	*	*	*
!!LO:LB:g=original	!	!	!	!	!
=20	=20	=20	=20	=20	=20
8DD#X\L 8D#X	4b\ 4ff# 4bb	.	8%9r	.	.
8D#\ 8F# 8B	.	.	.	.	.
8D#\J 8F# 8B	8an\ 8aan	.	.	.	.
8D#\L 8F# 8B	4.f#\ 4.ff#	.	.	.	.
8D#\ 8F# 8B	.	.	.	.	.
8D#\J 8F# 8B	.	.	.	.	.
8AA/L 8E 8F#	4ccn\ 4cccn	>	.	.	.
8AA/ 8E 8F#	.	.	.	.	.
8FF#/J 8F#	8cc\ 8ee 8aa 8ccc	.	.	.	.
=21	=21	=21	=21	=21	=21
8BBB\L 8BB	((4cc\ 4ccc	]]	4r	.	.
8BB\ 8F# 8A 8B	.	.	.	.	.
8BB\J 8F# 8A 8B	8d#X/)) 8dd#X	.	8r	.	.
!	!	!	!	!	!LO:DY:a
8BB\L 8F# 8B	4.a\ 4.dd# 4.aa	p	4.an/	Ży-	p
8BB\ 8F# 8B	.	.	.	.	.
8BB\J 8F# 8B	.	.	.	.	.
8BB\L 8B	4g\ 4b 4ee 4gg	.	4b\	-cie	.
8BB\ 8B	.	.	.	.	.
8BB\J 8B	8e/ 8a 8cc 8ee	.	8cc\	mnie	.
=22	=22	=22	=22	=22	=22
!	!	!	!	!	!LO:HP:a
8BB\L 8E 8F# 8A	4a\ 4cc	.	[2.ff#\	wzy-	<
8BB\ 8E 8F# 8A	.	.	.	.	.
8BB\J 8E 8F# 8A	8a\ 8cc 8aa	.	.	.	.
8BB\L 8E 8F# 8A	4a\ 4cc	.	.	.	.
8BB\ 8E 8F# 8A	.	.	.	.	.
8BB\J 8E 8F# 8A	8a\ 8cc 8ff#	.	.	.	.
8BB\L 8F# 8A	4f#/ 4a	<	4.ff#\]	.	[
8BB\ 8F# 8A	.	.	.	.	.
8BB\J 8F# 8A	8f#/ 8a 8ee	.	.	.	.
=23	=23	=23	=23	=23	=23
8BB\L 8F# 8A	4d#X/ 4a 4dd#X	.	[4.b\	-wa!	.
8BB\ 8F# 8A	.	.	.	.	.
8BB\J 8F# 8A	8d#/ 8a 8b	.	.	.	.
.	(8qddn/	.	.	.	.
8BB\L 8F# 8A	4d#/) 4a 4cc	.	4b\]	.	.
8BB\ 8F# 8A	.	.	.	.	.
8BB\J 8F# 8A	8d#/ 8a 8b	.	8r	.	.
!	!LO:TX:b:i:t=rit.	!	!	!	!
8AA\L 8A	8d#/L 8f#	.	4r	.	.
8GG\ 8G	8c#X/ 8e 8b	.	.	.	.
!	!	!	!	!	!LO:DY:a
8FF#\J 8F#	8B/J 8d# 8a 8b	.	8b\	Nie	f
!!LO:LB:g=original	!	!	!	!	!
=24	=24	=24	=24	=24	=24
*	*^	*	*	*	*
!	!LO:TX:b:i:t=a tempo	!	!	!LO:TX:a:i:t=a tempo	!	!
8EE\L 8E	2.ee/	8e\L 8g	fp	2.ee\	wol-	.
8E\ 8B	.	8e\ 8g	.	.	.	.
8E\J 8B	.	8e\J 8g	.	.	.	.
8E\L 8B	.	8e\L 8g	.	.	.	.
8E\ 8B	.	8e\ 8g	.	.	.	.
8E\J 8B	.	8e\J 8g	.	.	.	.
8E\L 8B	(4a#X/	8e\L 8g	.	(4a#X/	-no	.
8E\ 8B	.	8e\ 8g	.	.	.	.
8E\J 8B	8b/)	8e\J 8g	.	8b\)	.	.
=25	=25	=25	=25	=25	=25	=25
8r	4.gg/	8r	.	4.gg\	spo-	.
8E\L 8c 8e	.	8an\L 8cc	.	.	.	.
8E\J 8c 8e	.	8a\J 8cc	.	.	.	.
8E\L 8c 8e	4.ff#/	8a\L 8cc	.	4.ff#\	-cząć	.
8E\ 8c 8e	.	8a\ 8cc	.	.	.	.
8E\J 8c 8e	.	8a\J 8cc	.	.	.	.
!	!LO:TX:b:i:t=colla parte	!	!	!LO:TX:a:i:t=sost.	!	!
8E\L 8c 8e	8a\L	4ryy	.	8an/	Trze-	.
8E\ 8c 8e	8a\ 8cc 8gg	.	.	8gg\	-ba	.
8E\J 8c 8e	8a\J 8cc 8ff#	8ryy	.	8ff#\	aż	.
=26	=26	=26	=26	=26	=26	=26
4.FF#/ 4.F#	4ee/	8rf	.	(4ee\	do	.
.	.	8e\L 8a 8cc	.	.	.	.
.	8dd#X/	8d#X\J 8a 8b	.	8dd#X\)	.	.
4.AA\ 4.A	4ff#/	8rf	.	4ff#\	dna	.
.	.	8f#\L 8b 8dd#	.	.	.	.
.	8dd#/	8d#\J 8f# 8b	.	8dd#\	Wy-	.
4.FF#/ 4.F#	4cc/	8rd	.	4cc\	-chy-	.
.	.	8c\L 8e 8a	.	.	.	.
.	8b/	8B\J 8e 8a	.	8b\	-lić	.
=27	=27	=27	=27	=27	=27	=27
*^	*	*	*	*	*	*
8BBB\L 8BB	2.ryy	4.cc/	8rd	.	4.cc\	cza-	.
8BB\ 8F# 8A	.	.	8d#X\L	.	.	.	.
8BB\J 8F# 8A	.	.	8d#\J	.	.	.	.
8BB\L 8F#	.	[4.d#/	8B\L	.	[4.d#X/	-rę!	.
8BB\ 8F#	.	.	8B\	.	.	.	.
8BB\J 8F#	.	.	8B\J	.	.	.	.
8F#/L 8B	8AA\L	4d#/]	4ryy	.	4d#/]	.	.
8F#/ 8B	8AA\	.	.	.	.	.	.
8F#/J 8B	8AA\J	8d#/	8ryy	.	8r	.	.
*v	*v	*	*	*	*	*	*
!!LO:LB:g=original	!	!	!	!	!	!
=28	=28	=28	=28	=28	=28	=28
8GG\L	(>4E</ 4c 4e	4ryy	<	4r	.	.
8GG\	.	.	.	.	.	.
8GG\J 8E	8g/)	8ryy	.	8r	.	.
!	!	!	!	!	!	!LO:DY:a
8GG/L 8E	(4cc/	8c\L 8e	[	4.cc\	Ser-	f
8GG/ 8E	.	8c\ 8e	.	.	.	.
8GG/J 8E	8b-X/)	8c\J 8e	.	.	.	.
4.CC/ 4.C	4g/	8B-X\L 8e	.	4dd-\	-ca	.
.	.	8B-\ 8e	.	.	.	.
.	8cc/	8B-\J 8e	.	8cc\	się	.
=29	=29	=29	=29	=29	=29	=29
2.AAA-X/ 2.AA-X	8c/L 8g 8cc	4.ryy	.	4.gg\	za-	.
.	8c/ 8e	.	.	.	.	.
.	8c/J 8fn	.	<	.	.	.
.	4dd-X/	8d-X\L 8f	.	[4.ffn\	-przeć	.
.	.	8d-\ 8f	.	.	.	.
.	8cc/	8c\J 8f	.	.	.	.
4.AA-X\ 4.A-X	8d-\L 8f 8dd-	4ryy	.	4ffn\]	.	.
.	8e\ 8dd- 8ee	.	.	.	.	.
.	8f\J 8dd- 8ffn	8ryy	.	8r	.	.
=30	=30	=30	=30	=30	=30	=30
4.FFn/ 4.Fn	4gg/	8g\L 8dd-X	f	4r	.	.
.	.	8g\ 8dd-	.	.	.	.
.	8bb-X/	8b-X\J 8dd-	.	8r	.	.
[4.F\ [4.A-X [4.d-X	[4.a\ [4.dd- [4.aa	4ryy	.	4r	.	.
!	!	!	!	!	!	!LO:DY:a
.	.	8ryy	.	8a-X/	Niech	f
8F\] 8A-] 8d-]	8a\] 8dd-] 8aa]	4ryy	.	(8cc\L	rę-	.
8r	8r	.	.	8dd-X\J)	.	.
8r	8r	8ryy	.	8ee-X\	-ka	.
*	*v	*v	*	*	*	*
=31	=31	=31	=31	=31	=31
8%9r	8%9r	.	(4.ffn\	chłod-	.
.	.	.	4.ee-X\)	.	.
.	.	.	4.dd-X\	-na	.
!!LO:LB:g=original	!	!	!	!	!
=32	=32	=32	=32	=32	=32
!	!	!LO:DY:a	!	!	!
4.AA-X\	4.Fn</ 4.c<	f	2.cc\	speł-	.
!	!	!LO:HP:a	!	!	!
4.GG\	4.E</ 4.B-X< 4.c<	>	.	.	.
4.FF#X\	4.D#X</ 4.B-< 4.c<	.	4cc\	-ni	.
.	.	.	8cc\	o-	.
=33	=33	=33	=33	=33	=33
!	!	!	!	!	!LO:DY:a
[2.BBBn\	([<2.D#X</ [2.A< 2.c<	.	(2.cc\	-fia-	p
4.BBB\]	4.D#</]) 4.A<] 4.B<	]	4.b\)	.	.
=34||	=34||	=34||	=34||	=34||	=34||
!	!	!	!LO:TX:a:B:t=Quasi Andante.	!	!
8EE\L	8E</ 8G< 8B<	.	[4.e/	-rę	.
8E\ 8G 8B	8r	p	.	.	.
8E\J 8G 8B	(8e/	<	.	.	.
8E\L 8G 8B	8ee\L	.	4e/]	.	.
8E\ 8G 8c	8dd#X\	[	.	.	.
8E\J 8G 8d#X	8cc\J	.	8r	.	.
8E\L 8G 8e	4b\)	.	4r	.	.
8E\ 8G 8B	.	.	.	.	.
!	!	!	!	!	!LO:DY:a
8E\J 8G 8B	8r	.	8b\	Przy-	p
=35	=35	=35	=35	=35	=35
8E\L 8F#X 8A 8d#X	4r	.	(4a/	-rzek-	.
8E\ 8F# 8A 8d#	.	.	.	.	.
8E\J 8F# 8A 8d#	(8cc\	<	8g/)	.	.
8E\L 8F# 8A 8d#	8ccc\L)	[	4f#/	-łam	.
8E\ 8F# 8A 8d#	8aa'\	.	.	.	.
8E\J 8F# 8A 8d#	8gg'\J	.	8r	.	.
8E\L 8F# 8A 8d#	(8ff#\L	.	4r	.	.
8E\ 8F# 8A 8d#	8gg\	.	.	.	.
8E\J 8F# 8A 8d#	8aa\J)	.	8r	.	.
!!LO:PB:g=original	!	!	!	!	!
=36	=36	=36	=36	=36	=36
8E\L 8G 8B 8e	8bb\	.	(4ee\	speł-	.
8E\ 8G 8B 8e	8r	.	.	.	.
8E\J 8G 8B 8e	(8b\	.	16ddn\LL	.	.
.	.	.	16cc\JJ)	.	.
8E\L 8G 8B 8e	8bb\L)	.	4b\	-nię!	.
8E\ 8G 8B 8e	8gg\	.	.	.	.
8E\J 8G 8B 8e	8dd#X\J	.	8r	.	.
8E\L 8G 8B 8e	(8ff#\L	.	4r	.	.
8E\ 8G 8B 8e	8ee\	.	.	.	.
8E\J 8G 8B 8e	8b\J)	.	8b\	Niech	.
=37	=37	=37	=37	=37	=37
8EE\L 8E	4dd#X\	.	4dd#X\	ser-	.
8E\ 8F# 8A 8c	.	.	.	.	.
8E\J 8F# 8A 8c	8cc\	.	8cc\	-ce	.
8E\L 8F# 8A#X 8c	(8gg\L	<	(4.gg\	pę-	.
8E\ 8F# 8A# 8c	8cc\	.	.	.	.
8E\J 8F# 8A# 8c	8ccc\J)	[	.	.	.
8E\L 8F# 8An 8c	(8aa\L	.	4.ff#\)	.	.
8E\ 8F# 8A 8c	8dd#X\	.	.	.	.
8E\J 8F# 8A 8c	8aa\J)	.	.	.	.
=38	=38	=38	=38	=38	=38
8EE\L 8E	8gg\	.	[4.ee\	-ka!	.
8E\ 8G 8B	8r	.	.	.	.
8E\J 8G 8B	(8b\	.	.	.	.
8E\L 8G 8B	8bb\L	>	4ee\]	.	.
8E\ 8G 8B	8gg\	.	.	.	.
8E\J 8G 8c	8dd#X\J)	.	8r	.	.
8E\L 8G 8B	4ee\	]	4r	.	.
8E\ 8G 8B	.	.	.	.	.
!	!	!	!	!	!LO:DY:a
8E\J 8G 8B	8ee\	p	8ee\	On	p
=39	=39	=39	=39	=39	=39
*^	*^	*	*	*	*
!	!LO:TX:t=P:problem: błąd wyświetlania VHV	!	!	!	!	!	!
!	!LO:N:vis=4.	!	!	!	!LO:TX:a:i:t=smorzando	!	!
4.GG/	8GG\L	(4ffn\	4.ryy	.	4ffn\	um-	.
.	8D\ 8Fn 8B	.	.	.	.	.	.
.	8D\J 8F 8B	8fn/)	.	.	8fn/	-rze	.
!	!LO:N:vis=4.	!	!	!	!	!	!
4.AA-X/	8AA-\L	(4.ff/	8rd	.	(4.ff\	w kwie-	.
.	8F\ 8c	.	8f\L	.	.	.	.
.	8F\J 8c	.	8f\J	.	.	.	.
!	!LO:N:vis=4.	!	!	!	!	!	!
4.AAn/	8AAn\L	4ee-X/	8rd	.	4ee-X\)	.	.
.	8F\ 8c	.	8f\L	.	.	.	.
.	8F\J 8c	8cc/)	8f\J	.	8cc\	-cie	.
*	*	*v	*v	*	*	*	*
!!LO:LB:g=original	!	!	!	!	!	!
=40	=40	=40	=40	=40	=40	=40
!LO:N:vis=4.	!	!	!	!	!	!
8BB-X\L	4.BB-/	(4dd-X\	.	[4.dd-X\	lat.	.
8Fn\ 8B-X	.	.	.	.	.	.
8F\J 8B-	.	8d-X/	.	.	.	.
!	!	!LO:TX:b:i:t=molto espressivo	!	!	!	!
8F\L 8B-	4ryy	4.dd-\)	.	4dd-\]	.	.
8F\ 8B-	.	.	.	.	.	.
8F\J 8B-	8ryy	.	.	8r	.	.
!LO:N:vis=4.	!	!	!	!	!	!
8BB-\L	4.BB-/	(4cc\	.	4r	.	.
8En\ 8G 8c	.	.	.	.	.	.
8E\J 8G 8c	.	8g/)	.	8r	.	.
=41	=41	=41	=41	=41	=41	=41
!LO:N:vis=4.	!	!	!	!	!	!
8BBn\L	4.BBn/	(4cc\	.	8%9r	.	.
8E\ 8G 8B	.	.	.	.	.	.
8E\J 8G 8B	.	8e/	.	.	.	.
4E\ 4G 4B	4ryy	4.b\)	.	.	.	.
8ryy	8ryy	.	.	.	.	.
!LO:N:vis=4.	!	!	!	!	!	!
8C\L	4.C/	(4a/	>	.	.	.
8E\ 8F# 8A	.	.	.	.	.	.
8E\J 8F# 8A	.	8e/)	.	.	.	.
=42	=42	=42	=42	=42	=42	=42
!LO:N:vis=4.	!	!	!	!	!	!
8FF#\L	4.FF#/	(4g/	]]	4r	.	.
8C\ 8E 8A	.	.	.	.	.	.
8C\J 8E 8A	.	8c/	.	8r	.	.
8C\L 8E 8A	4ryy	4.g/)	.	4r	.	.
8C\ 8E 8A	.	.	.	.	.	.
8C\J 8E 8A	8ryy	.	.	8r	.	.
4.BBB/ 4.BB	4ryy	8A/L 8c 8e 8f#	<	4r	.	.
.	.	8A/ 8c 8d#X 8g	.	.	.	.
!	!	!	!	!	!	!LO:DY:a
.	8ryy	8A/J 8B 8d# 8f#	[	8b\	Bo	f
*v	*v	*	*	*	*	*
=43||	=43||	=43||	=43||	=43||	=43||
*	*^	*	*	*	*
!	!	!	!	!LO:TX:a:B:t=Tempo I.	!	!
8EEE/ 8EE	8G/ 8B 8e	4.ryy	f	2.ee\	go-	.
8E\L 8B 8e	8g/L	.	p	.	.	.
8E\J 8B 8e	8g/J	.	.	.	.	.
4.E\ 4.B 4.e	4.ee/	8g\L	.	.	.	.
.	.	8g\	.	.	.	.
.	.	8g\J	.	.	.	.
4.E\ 4.B 4.e	(4a#X/	8g\L	.	(4a#X/	-wie,	.
.	.	8g\	.	.	.	.
.	8b/)	8g\J	.	8b\)	.	.
=44	=44	=44	=44	=44	=44	=44
8r	4.gg/	8rf	.	4.gg\	si-	.
8E\L 8c 8e	.	8an\L 8cc	.	.	.	.
8E\J 8c 8e	.	8a\J 8cc	.	.	.	.
8E\L 8c 8e	(4ff#/	8a\L 8cc	.	4ff#\	-ły!	.
8E\ 8c 8e	.	8a\ 8cc	.	.	.	.
8E\J 8c 8e	8a/)	8a\J	.	8an/	Niech	.
8E\L 8c 8e	(4gg/	8a\L 8cc	.	4gg\	nie	.
8E\ 8c 8e	.	8a\ 8cc	.	.	.	.
8E\J 8c 8e	8ff#/)	8a\J 8cc	.	8ff#\	drży	.
=45	=45	=45	=45	=45	=45	=45
8EE\L 8E	4ee/	8rf	.	(4ee\	rę-	.
8E\ 8F# 8A 8d#X	.	8a\L	.	.	.	.
8E\J 8F# 8A 8d#	8dd#X/	8a\J	.	8dd#X\)	.	.
8E\L 8F# 8A 8d#	(4ff#\	4ryy	.	[2.ff#\	-ka,	.
8E\ 8F# 8A 8d#	.	.	.	.	.	.
8E\J 8F# 8A 8d#	8dd#X\	8ryy	.	.	.	.
8E\L 8F# 8A 8d#	4cc\	4ryy	.	.	.	.
8E\ 8F# 8A 8d#	.	.	.	.	.	.
8E\J 8F# 8A 8d#	8b\)	8ryy	.	.	.	.
*	*v	*v	*	*	*	*
=46	=46	=46	=46	=46	=46
8E\L 8F# 8A 8c	(4.cc\	.	2.ff#\_	.	.
8E\ 8F# 8A 8c	.	.	.	.	.
8E\J 8F# 8A 8c	.	.	.	.	.
8C\L 8E 8F# 8A	4.f#/)	.	.	.	.
8C\ 8E 8F# 8A	.	.	.	.	.
8C\J 8E 8F# 8A	.	.	.	.	.
8AA/L 8C 8E 8F#	(4cc\	.	4.ff#\_	.	.
8AA/ 8C 8E 8F#	.	.	.	.	.
8AA/J 8C 8E 8F#	8b\)	.	.	.	.
=47	=47	=47	=47	=47	=47
8FF#\L	(4.cc\	.	4ff#\]	.	.
8C\ 8E 8A	.	.	.	.	.
8C\J 8E 8A	.	.	8r	.	.
8BBB\L	[2.d#X/)	.	4r	.	.
8BB\ 8F# 8A	.	.	.	.	.
8BB\J 8G 8B	.	.	8r	.	.
8BB\L 8A 8c	.	.	4r	.	.
8BB\ 8G 8B	.	.	.	.	.
8BB\J 8F# 8A	.	.	8r	.	.
!!LO:LB:g=original	!	!	!	!	!
=48	=48	=48	=48	=48	=48
4BB\ 4F# 4A	4d#/]	.	4r	.	.
8r	8r	.	8r	.	.
4r	4r	.	4r	.	.
!	!	!	!	!	!LO:DY:a
!	!	!	!	!	!LO:HP:a
8r	8r	.	8a/	Gdy	mf <
4r	4r	.	4b\	mu	.
8r	8r	.	8cc\	tru-	[
=49	=49	=49	=49	=49	=49
!	!	!	!	!	!LO:DY:a
4.F#^^\ 4.A#X	4.dn/ 4.f# 4.a#X 4.ddn	f	2.dd\	-ją-	f
4.G\ 4.B	4.d/ 4.fn 4.b 4.dd	.	.	.	.
4.Fn\ 4.B-X	4.d/ 4.a-X 4.b-X 4.dd	.	4.dd\	-cy	.
=50	=50	=50	=50	=50	=50
2.BBn^^\ 2.F#X 2.An	[2.d#X/ [2.an [2.bn [2.dd#X	.	(4.dd#X\	po-	.
.	.	.	[4.aa\)	.	.
4.BBB^^/ 4.BB	4.d#/] 4.a] 4.b] 4.dd#]	.	4aa\]	.	.
.	.	.	(16gg\LL	-da	.
.	.	.	16ff#\JJ)	.	.
=51||	=51||	=51||	=51||	=51||	=51||
!	!	!	!LO:TX:a:B:t=Più mosso.	!	!
8EEE/ 8EE	4e/ 4g 4b 4ee	ff	[2.ee\	jad.-	.
8E\L 8G 8B	.	.	.	.	.
8E\J 8G 8B	8r	.	.	.	.
8E\L 8G 8B 8e	4r	.	.	.	.
8E\ 8G 8B 8e	.	.	.	.	.
8E\J 8G 8B 8e	8r	.	.	.	.
8E\L 8G 8c 8e	8gg\L 8ccc 8ggg	.	4.ee\_	.	.
8E\ 8G 8c 8e	8ee\ 8eee	.	.	.	.
8E\J 8G 8c 8e	8dd\J 8ddd	.	.	.	.
=52	=52	=52	=52	=52	=52
8E\L 8G 8c 8e	4cc\ 4ccc	.	4ee\]	.	.
8E\ 8G 8c 8e	.	.	.	.	.
8E\J 8G 8c 8e	8r	.	8r	.	.
8E\L 8G 8c 8e	8gg\L 8ccc 8ggg	.	4r	.	.
8E\ 8G 8c 8e	8ee\ 8eee	.	.	.	.
8E\J 8G 8c 8e	8dd\J 8ddd	.	8r	.	.
8E\L 8G 8c 8e	8cc\L 8ccc	.	4r	.	.
8E\ 8G 8c 8e	8g\ 8gg	.	.	.	.
8E\J 8G 8c 8e	8a\J 8aa	.	8r	.	.
!!LO:LB:g=original	!	!	!	!	!
=53	=53	=53	=53	=53	=53
8E\L 8G 8B 8e	4b\ 4bb	.	8%9r	.	.
8E\ 8G 8B 8e	.	.	.	.	.
8E\J 8G 8B 8e	8r	.	.	.	.
8E\L 8G 8B 8e	8b^^\L 8ee 8bb	.	.	.	.
8E\ 8G 8B 8e	8g\ 8gg	.	.	.	.
8E\J 8G 8B 8e	8f#\J 8ff#	.	.	.	.
8E\L 8G 8B	4e/ 4ee	.	.	.	.
8E\ 8G 8B	.	.	.	.	.
8E\J 8G 8B	8r	.	.	.	.
=54	=54	=54	=54	=54	=54
8E\L 8G 8B	(8b^^\L 8ee 8bb	.	8%9r	.	.
8E\ 8G 8B	8g\) 8gg	.	.	.	.
8E\J 8G 8B	8f#\J 8ff#	.	.	.	.
8E\L 8G 8B	8e/L 8ee	>	.	.	.
8E\ 8G 8B	8g/	.	.	.	.
8E\J 8G 8A	8a/J	.	.	.	.
8E\L 8G 8c	8cc/L	.	.	.	.
8E\ 8G 8B	8b/	.	.	.	.
8E\J 8G	8g/J	]	.	.	.
=55	=55	=55	=55	=55	=55
8E\	8e/	.	8%9r	.	.
8r	8r	.	.	.	.
(8C/	(8c/	.	.	.	.
4AA#X/	4A#X/	.	.	.	.
8BB/	8B/	.	.	.	.
4GG/)	4G/)	.	.	.	.
!	!	!LO:HP:b:t=dim.	!	!	!
(<8E\	(8e/	>	.	.	.
=56	=56	=56	=56	=56	=56
4C/	4c/	.	8%9r	.	.
!	!LO:TX:a:i:t=rit.	!	!	!	!
8AA#X/	8A#X/	.	.	.	.
4BB/	4B/	.	.	.	.
8FF#/	8F#/	.	.	.	.
4AAn/	4An/	.	.	.	.
8GG/)	8G/)	.	.	.	.
==	==	==	==	==	==
*-	*-	*-	*-	*-	*-
!!!system-decoration: s1{(s2,s3)}
!!!RDF**kern: > = above
!!!RDF**kern: < = below
!!!ENC: Anastazja Marusiak
!!!END: 2022-11-10
!!!ENC: Jan Barakat
!!!END: 2022-10-22
!!!YEC: Copyright 2022 Narodowy Instytut Fryderyka Chopina (https://polishscores.org)
!!!YEM: License CC-BY-4.0 (https://creativecommons.org/licenses/by/4.0)
